X:1
T:EINE KLEINE NACHTMUSIK, K. 525
T:EINE KLEINE NACHTMUSIK, K. 525
T:Complete, for Marimba Quartet
T:WOLFGANG AMADEUS MOZART. ARR. HENRY MILLER
C:WOLFGANG AMADEUS MOZART. ARR. HENRY MILLER
%%score [ 1 2 ( 3 4 ) 5 ]
L:1/8
Q:1/4=160
M:4/4
K:G
V:1 treble nm="Marimba I" snm="Mrm. I"
V:2 treble nm="Marimba II" snm="Mrm. II"
V:3 treble nm="Marimba III" snm="Mrm. III"
V:4 treble 
V:5 bass nm="Marimba IV" snm="Mrm. IV"
V:1
"^Allegro"!f! [Bg]2 z .d g2 z .d | .g.d.g.b d'2 z2 | c'2 z .a c'2 z .a | .c'.a.f.a d2 z2 | %4
 [Bg] z g3 (b.a).g | (!///!gf) f3 (a.c').f | (!///!ag) g3 (b.a).g | (!///!gf) f3 (a.c').f | %8
 .g.g{g} (fe/f/) .g.g{b} (ag/a/) | .b.b{d'} (c'b/c'/) d'2 z2 |!p! (d4 e4) | %11
{/d} .c2 .c2{/c} .B2 .B2 |{/B} .A2 .A2 (GF).E.F | G z A z B z z2 | (d4 e4) | (dc).c.c (cB).B.B | %16
 (BA).A.A (GF).E.F | [G,G]4- [G,G]!p!(!///!GAF) | B4- B!p!(!///!BcA) | %19
 !//!d4"_cresc." !//!e2 !//!f2 | !//!g2 !//!a2 !//!b2 !//!^c'2 |!f! (d'3 a) (^c'>a) (c'>a) | %22
 (d'3 a) (^c'>a) (c'>a) | .d' .[fd']2 .[fd']2 .[fd']2 (.[fd'-] | %24
 [ed']) .[ed']2 .[ed']2 .[ed']2 .[ed'] | .[e^c'].a.d'.a .c'.a.d'.a | .^c'.A.A.A A2 z2 | %27
!p! (a3 (3g/f/e/ d) z b z | g z e z a z z2 | (f3 (3e/d/^c/ B) z g z | (!///!f4 e2) z2 | %31
 z .a.a.a .a.a.a.a | .a.a.a.a .a.a.b.^c' | (^c'd') z .b (ba) z ^c | d2 z .a (d'^c'ba) | %35
 (!///!ba) z .a .a.a.a.a | (!///!ba) z .a (d'^c'ba) | (!///!ba) z .a .a.a.a.a | %38
 (!///!ba) z2!f! [Bb]3 (3(a/g/f/ | g2) z2 [Aa]3 (3(g/f/e/ | f2) z2 (b^c'/d'/ c').b | %41
 (ba).f.a (ag).f.e | d2 z!p! .a (d'^c'ba) | (!///!ba) z .a .a.a.a.a | (!///!ba) z .a (d'^c'ba) | %45
 (!///!ba) z .a .a.a.a.a | (!///!ba) z2!f! !///![Bb]3 (3(a/g/f/ | g2) z2 !///![Aa]3 (3(g/f/e/ | %48
 f2) z2 (b^c'/d'/ c').b | (ba).f.a (ag).f.e | .d.A.B.^c .d.d (!///!e2 | .f).^c.d.e .f.f (!///!g2 | %52
 .a).a (!///!^a2 b2) z2 |!p! (B3 e) (d^cB=A) | d z f z d z z2 ::!f! [Dd]2 z .A d2 z .A | %56
 .d.A.d.f a2 z2 | a2 z .f a2 z .f | .a.f.^d.f B2 z2 | z2 z!p! .g (=c'bag) | %60
 (!///!ag) z .g .g.g.g.g | (!///!ag) z .g (c'bag) | (!///!ag) z .g .g.g.g.g | %63
 (!///!ag) z .g (c'bag) | (!///!a^g) z .g .g.g.g.g | (!///!ba) z .a (c'_ba=g) | %66
 (!///!g^f) z .f .f.f.f.f | (!///!ag) z ._e (g=fed) | (!///!d^c) z .c .c.c.c.c | %69
 (!///!=ed) z!f! (D E^FGA | =c_B) z (F GAB^c | =ed) z!p! (d efga | _b2 =b2 c'2 ^c'2) | d'8- | %74
 d'4 !///!f4 |!f! g2 z .d g2 z .d | .g.d.g.b d'2 z2 | c'2 z .a c'2 z .a | .c'.a.f.a d2 z2 | %79
 [Bg] z g3 (b.a).g | (!///!gf) f3 (a.c').f | (!///!ag) g3 (b.a).g | (!///!gf) f3 (a.c').f | %83
 .g.g{g} (fe/f/) .g.g{b} (ag/a/) | .b.b{d'} (c'b/c'/) d'2 z2 |!p! (d4 e4) | %86
{/d} .c2 .c2{/c} .B2 .B2 |{/B} .A2 .A2 (GF).E.F | G z A z B z z2 | (d4 e4) | (dc).c.c (cB).B.B | %91
 (BA).A.A (GF).E.F | [G,G]4- [G,G]!p!(!///!GAF) | B4- B!p!(!///!BcA) | %94
 !//!d4"_cresc." !//!e2 !//!f2 | !//!g2 !//!a2 !//!b2 !//!^c'2 |!f! (d'3 a) (^c'>a) (c'>a) | %97
 (d'3 a) (^c'>a) (c'>a) | .d'.a.^c'.a .d'.a.c'.a | .d'.D.D.D D2 z2 |!p! (d3 (3=c/B/A/ G) z e z | %101
 c z A z d z z2 | (b3 (3a/g/f/ e) z c' z | (b4 a2) z2 | z .d'.d'.d' .d'.d'.d'.d' | %105
 .d'.d'.d'.d' (d'c'af) | (fg) z .e (ed) z F | G2 z .d (gfed) | (!///!ed) z .d .d.d.d.d | %109
 (!///!ed) z .d (gfed) | (!///!ed) z .d .d.d.d.d | (!///!ed) z2!f! !///![Ee]3 (3(d/c/B/ | %112
 c2) z2 !///![Dd]3 (3(c/B/A/ | B2) z2 (ef/g/ f).e | (ed).B.d (dc).B.A | G2 z!p! .d (gfed) | %116
 (!///!ed) z .d .d.d.d.d | (!///!ed) z .d (gfed) | (!///!ed) z .d .d.d.d.d | %119
 (Ted) z2!f! !///!e'3 (3(d'/c'/b/ | c'2) z2 !///![dd']3 (3(c'/b/a/ | b2) z2 (ef/g/ f).e | %122
 .d.g.b.d' (d'c').b.a | .g.D.E.F .G.G (!///!A2 | .B).F.G.A .B.B (!///!c2 | .d).d (!///!^d2 e2) z2 | %126
!p! (E3 A) (GFED) | (d^c=cB d^c=cB) | (E3 A) (GFED) | (defg defg) | a2 z2!f! [dd']2 z2 | %131
 [Bg]2 z .d .B.G.B.d | .g.d.g.b .d'2 .[Af]2 | [Bg]2 z .d .B.G.B.d | .g.d.g.b .d'2 .[Af]2 | %135
 [Bg]2 z2 [Bg]2 z2 | .[Bg]2 .[G,G]>[G,G] [G,G]2 z2 :| %137
[K:C][M:2/2][Q:1/4=80]"^Romanze: Andante"!p! e z e z | (e3 g) (fdfa) | (g>e) g z .c' (c'2 b) | %140
 .a (a2 g) (gf/) z/ (fe/) z/ | (g>e)d z!f! e z e z | (e3 g) (fdfa) | (g>e) g z (c'g/) z/ (ge/) z/ | %144
 (da){g} (fe/d/) c2 (e/d/c/d/) | c2 z2 ::!p! (^c/d/f/e/) (^d/e/g/f/) | f2 (a>g) g2 (f/e/=d/=c/) | %148
 (!///!e2 d) z (^c/d/f/e/) (^d/e/g/f/) |"_cresc." f2 (b>=c') c'2 (b/a/g/^f/) | %150
 (g/a/g/^f/ g/^g/a/=f/) e z e z | (e3 =g) (fdfa) | (g>e) g z!f! (gc'/) z/ (bf/) z/ | %153
 (eg/) z/ (fa/) z/ !///!c2 (e/d/c/d/) | c2 z2 ::!p! .e.e.e.e | (eg/f/ e/d/c/B/) .c.c.c.c | %157
 (!///!^c2 d) z .e.e.^f.f | (g/b/a/g/ ^f/e/d/^c/) (d/e/d/=c/ B/A/G/^F/) | (!///!A2 G) z :: %160
 .g.g.g.g | (g/_b/a/g/ =f/e/d/^c/) .f.f.f.f | (f/a/g/f/ e/d/=c/=B/) .e.e.e.e | %163
 (e/f/e/^d/ e/=d/c/B/) (A/B/A/^G/ A/c/B/A/) | (^GB) e3 .e.e.e | %165
 (e/f/e/^d/ e/^f/^g/e/) (a/b/a/g/ a/c'/b/a/) | (^gb) .e z z2 z .a | (^gb).e z z4 | %168
 z2 z .a (^gb).e.^f | =g4 (^fa).d.e | (=f4 e) z e z | (e3 g) (fdfa) | (g>e) g z .c' (c'2 b) | %173
 .a (a2 g) (gf/) z/ (fe/) z/ | (g>e) d z!f! e z e z | (e3 g) (fdfa) | %176
 (g>e) g z (c'g/) z/ (ge/) z/ | (da){g} (fe/d/) c2 (e/d/c/d/) | c2 z2 ::[K:Eb] z2!p! g(!///!=B | %180
 c) z z2 z2 g(!///!=B | c) z z2 z2 g(!///!c | a3) (!///!g .f).f.d.d | e z2 z :| z2 _b(!///!d | %185
 e) z z2 z2 c'(!///!=e | f) z z2 z2 d'(!///!^f | g)(!///!ag)(!///!=f _e)(!///!=B c)(!///!e | %188
 d) z z2 z4 | z2 c'(!///!^f g) z c'(!///!f | g) z c'(!///!^f g) z c'(!///!f | g) z z2 ^f z z2 | %192
 =f z z2 ||[K:C] e z e z | (e3 g) (fdfa) | (g>e) g z .c' (c'2 b) | .a (a2 g) (gf/) z/ (fe/) z/ | %197
 (g>e)d z!f! e z e z | (e3 g) (fdfa) | (g>e) g z (c'g/) z/ (ge/) z/ | %200
 (da){g} (fe/d/) c2 (e/d/c/d/) | c2 z2!p! (^c/d/f/e/) (^d/e/g/f/) | f2 (a>g) g2 (f/e/=d/=c/) | %203
 (e2 d) z (^c/d/f/e/) (^d/e/g/f/) |"_cresc." f2 (b>=c') c'2 (b/a/g/^f/) | %205
 (g/a/g/^f/ g/^g/a/=f/) e z e z | (e3 =g) (fdfa) | (g>e) g z!f! (gc'/) z/ (bf/) z/ | %208
 (eg/) z/ (fa/) z/ c2 (e/d/c/d/) | c2 z2!f! [c_b]2 z2 | [ca]2 z2 [dc']2 z2 | %211
!p! (c3 d/4c/4=B/4c/4) (e2 d>).c | c2 z2 e z e z | (e3 g) (fdfb) | (b2 c') z e z e z | %215
 (e3 g fdgB) | (d4 c) z z2 |][K:G][M:3/4][Q:1/4=150]"^Menuetto: Allegretto"!f! .d2 | .g2 .a2 .b2 | %219
 c'4 .a2 | .b2 .g2 .a2 |{g} f2 edef | .g2 .a2 .b2 | .c'2 !///!a2 .b2 | !///!g2 .a2 .f2 | g2 z2 :: %226
!p! b2 | (agfe^df) | (efg^gba) | (=gfe=d^ce) |"_cresc." (defgaf) |!f! .g2 .a2 .b2 | %232
 .c'2 !///!a2 .b2 | !///!g2 .a2 .f2 | g2 z2!fine! ::[K:D][Q:1/4=150]"^Trio""_sotto voce"!p! (fg | %236
 a4) (bc' | d'3 c'ba) | (gfga^ab) | (e3 ^deg) | (f^efg^g=a) | (=dcd=e^ef) | (=ef=gece) | d2 z2 :: %244
!f! (cd | efgaba | gfed) (ef | ^gabc'd'b |!>(!"_(" a3) (=gfg)!>)!"_)" | %249
!p!"_sotto voce" (a3 ^a bc') | (d'3 c'ba | gfga^ab) | (e3 ^deg) | (f^efg^g=a) | (=dcd=e^ef) | %255
 (=ef=gece) | d2 z2!D.C.! :|[K:G][M:2/2][Q:1/4=250]"^Rondo: Allegro" z!p! .d.g.b |: %258
 .d'2 .d'2 .d'2 .d'2 | .f2 .f2 .g2 (!///!g2 | .c'2) .c'2 .b2 .b2 | a2 z2 z .d.g.b | %262
 .d'2 .d'2 .d'2 .d'2 | .f2 (!///!f2 .g2) (!///!g2 | .a2) .a2 d2 .e.f | g2 z2 z .d.g.b | %266
 .d'2 .d'2 .d'2 .d'2 | .f2 .f2 .g2 (!///!g2 | .c'2) .c'2 .b2 .b2 | a2 z2 z .d.g.b | %270
 .d'2 .d'2 .d'2 .d'2 | .f2 (!///!f2 .g2) (!///!g2 | .a2) .a2 d2 .e.f |!f! !///!g4- (ga)(fd) | %274
 !///!b4- (bc')(af) | d' d'2 d'2 d'2 d'- | d' d'2 d'2 d'2 d'- | (d'b).b.b (bg).g.g | %278
 (gd).d.d (dB)(BG) | .d2 .[Af]2 .[Bg]2 .b2 | .d'2 .D2 D2 z2 | (!///!a4!p! ^c) z d z | %282
 e z f z g z z2 | (fg^ga ^ab=ge) | (!///!d4 ^c2) z2 | (!///!a4!p! ^c) z d z | e z f z g z z2 | %287
 (f2 !///!d'4 ^g2) | (!///!b4 a2) z2 | (ba).=g.f .e2 .e2 | (gf).e.d .^c2 z2 | (ba).g.f .e.e.e.e | %292
 (gf).e.d (^cece) | (g=f).e.d (^cece) | (g=f).e.d (^cece) | (gege gege | g2) z2 z .A.d.f | %297
 .a2 .a2 .a2 .a2 | .^c2 .c2 .d2 (!///!d2 | .g2) .g2 .f2 .f2 | e2 z2 z .A.d.f | .a2 .a2 .a2 .a2 | %302
 .^c2 (!///!c2 .d2) (!///!d2 | .e2) (!///!e2 .f2) (!///!f2 | (!///!a4) g).B.d.g | .b2 .b2 .b2 .b2 | %306
 .^c2 (!///!c2 .d2) (!///!d2 | .g2) .g2 .e2 .e2 | !///!a4- (abga) | !///!f4- (fgef) | %310
 !///!d4- (de^cA) |!f! (ab).^c'.d' (c'b).a.g | (fg).a.b (ag).f.e | (ed).d.d (df).e.^c | %314
 d2 z2 z!p! .A.d.f | .a2 .a2 .a2 .a2 | B2 z2 z .B.d.g | .b2 .b2 .b2 .b2 | =c2 z2 z .c.f.a | %319
 .c'2 .c'2 .c'2 .c'2 |1 d2 z2 z .d.g.b :|2 d2 z2 z!f! .D.F.A |: .c2 .c2 .c2 .c2 | %323
 _E2 z2 z!p! ._B._e.g | ._b2 .b2 .b2 .b2 | .d2 .d2 ._e2 (!///!e2 | ._a2) .a2 .g2 .g2 | %327
 =f2 z2 z ._B._e.g | ._b2 .b2 .b2 .b2 | .d2 (!///!d2 ._e2) (!///!e2 | .=f2) .f2 _B2 .c.d | %331
!f! _e4- (e=f)(d_B) | g4- (g_a)(=fd) | _b b2 b2 b2 b- | b _b2 b2 b2 b- |!f! (bg).g.g (g_e).e.e | %336
 (_e_B).B.B (BG)(G_E) | (=b=f).f.f (fd).d.d | (d=B).B.B (B=F)(FD) | (c'g).g.g (g_e).e.e | %340
 (_ec).c.c (cG)(G_E) | (d'a).a.a (af).f.f | (fd).d.d (dA)(AF) | (_bg).g.g (gd).d.d | %344
 (d_B).B.B (BG)(GD) | (g_e).e.e (e_B).B.B | (_BG).G.G (G_E)(E^C) | .D2 .[DAf]2 .[D_Bg]2 ._b2 | %348
 .d'2 .D2 D2 z2 | (d4!p! F) z G z | A z =B z =c z z2 | (Bc^cd ^de=cA) | (G4 F2) z2 | %353
 (=d4!p! F) z G z | A z B z c z z2 | (B2 g4 ^c2) | (e4 d2) z2 | (ed).=c.B .A2 .A2 | %358
 (cB).A.G .F2 z2 | (ed).c.B .A.A.A.A | (cB).A.G (FAFA) | (c_B).A.G (FAFA) | (c_B).A.G F(afa) | %363
 (c'ac'a c'ac'a | c'2) z2 z .d.g.b | .d'2 .d'2 .d'2 .d'2 | .f2 .f2 .g2 (!///!g2 | %367
 .c'2) .c'2 .b2 .b2 | a2 z2 z .D.G.B | .d2 .d2 .d2 .d2 | .F2 (!///!F2 .G2) (!///!G2 | %371
 .A2) (!///!A2 .B2) (!///!B2 | (d4) c).E.G.c | .e2 .e2 .e2 .e2 | .F2 (!///!F2 .G2) (!///!G2 | %375
 .c2) .c2 .A2 .A2 | d4- (decd) | B4- (BcAB) | G4- (GAFD) |!f! (de).f.g (fe).d.c | %380
 (Bd).g.b (d'c').b.a | (ag).g.g (gb).a.f | g2 z2 z!p! .D.G.B | .d2 .d2 .d2 .d2 | E2 z2 z .E.G.c | %385
 .e2 .e2 .e2 .e2 | =F2 z2 z .F.B.d | .=f2 .f2 .f2 .f2 | G2 z2 z!f! .G,.B,.D | .=F2 .F2 .F2 .F2 | %390
 ^G,2 z2 z!p! .E.^G.B | .e2 .e2 (e2 a) z | .d2 .d2 (d2 g) z | .c2 .c2 .c2 .c2 | %394
 c2 z2 z!f! .D.F.A :|[Q:1/4=250]"^Coda" .c2 .c2 .c2 .c2 | D2 z2 z!p! .d.g.b | .d'2 .d'2 .d'2 .d'2 | %398
 .f2 .f2 .g2 (!//!g2 | .c'2) .c'2 .b2 .b2 | a2 z2 z .d.g.b | .d'2 .d'2 .d'2 .d'2 | %402
 .f2 (!//!f2 .g2) (!//!g2 | .a2) .a2 d2 .e.f | (gfgb agfe) | (defg abc'f) | (!//!gfgb agfe) | %407
 (defg abc'f) | (!//!gfgb agfe) | (defg abc'f) | (agfg) (fedc) | (Bc^cd) (d=cBA) | %412
 G2 z2 z!f! .d.g.b | .d'2 .d'2 .d'2 .d'2 | D2 z2 z .d.g.b | .d'2 .d'2 .d'2 .d'2 | D2 z2 z .d.g.b | %417
 .d'2 .d'2 .d'2 .d'2 | (d'b).b.b (bg).g.g | (ge).e.e (dB).c.A | G2 z2 z .B.d.g | .b2 .b2 .b2 .b2 | %422
 G,2 z2 z .B.d.g | .b2 .b2 .b2 .b2 | G,2 z2 z .d.g.b | .d'2 .d'2 .d'2 .d'2 | d'4 .b2 .g2 | %427
 .d.d.g.g .B.B.d.d | G2 z2 [Gdb]2 z2 | !//!G,4 z4 |] %430
V:2
!f! [DB]2 z .d g2 z .d | .g.d.g.b d'2 z2 | c'2 z .a c'2 z .a | .c'.a.f.a d2 z2 | %4
 !//![B,D]4 !//![B,D]4 | !//![CD]4 !//![CD]4 | !//![B,D]4 !//![B,D]4 | !//![CD]4 !//![CD]4 | %8
 [B,D]2 .c.c .d.d cB/A/ | .G.G.F.F G2 z2 |!p! (B4 c4) |{/B} .A2 .A2{/A} .G2 .G2 | %12
 .E2 .E2 .B,2 .A,2 | D z F z G z z2 | (B4 c4) | (BA).A.A (AG).G.G | E2 .E.E C2 .C.C | %17
 B,4- B,!p!(!///!B,CA,) | G4- G!p!(!///!GAF) | !//!B4"_cresc." !//!c4 | !//!B2 !//!d4 !//!g2 | %21
!f! !//!f4 !//!g4 | !//!f4 !//!g4 | .[df] .[df]2 .[df]2 .[df]2 (.[d-f] | %24
 [de]) .[de]2 .[de]2 .[de]2 .[de] | !//![^ce]2 !//![df]2 !//![ce]2 !//![df]2 | .[^ce].A.A.A A2 z2 | %27
!p! (A3 (3G/F/E/ D) z B z | G z E z A z z2 | (F3 (3E/D/^C/ B,) z G z | (!///!F4 E2) z2 | %31
 (A3 (3G/F/E/ D) z B z | G z E z A z G z | (GF) z .g (gf) z G | .F.F.G.G .A.A.F.F | %35
 .E.E.F.F .G.G.E.E | .F.F.G.G .A.A.F.F | .E.E.F.F .G.G.E.E | F2 z2!f! (!///![Bf]4 | %39
 e2) z2 (!///![Ae]4 | d).f.g.a (ga/b/ a).g | (gf).d.f (fe).d.^c | .d!p!.F.G.G .A.A.F.F | %43
 .E.E.F.F .G.G.E.E | .F.F.G.G .A.A.F.F | .E.E.F.F .G.G.E.E | F2 z2!f! (!///![Bf]4 | %47
 e2) z2 (!///![Ae]4 | d).f.g.a (ga/b/ a).g | (gf).d.f (fe).d.^c | .d.A.B.^c .d.d (!///!e2 | %51
 .f).^c.d.e .f.f (!///!g2 | .a).a (!///!^a2 b2) z2 |!p! (G8 | F) z A z F z z2 :: %55
!f! [Dd]2 z .A d2 z .A | .d.A.d.f a2 z2 | a2 z .f a2 z .f | .a.f.^d.f B2 z2 | %59
!p! .E.E.=F.F .G.G.E.E | .=D.D.E.E .=F.F.D.D | .E.E.=F.F .G.G.E.E | .D.D.E.E .=F.F.D.D | %63
 .E.E.=F.F .G.G.E.E | .D.D.E.E .=F.F.D.D | .C.C.D.D .E.E.C.C | .C.C.D.D ._E.E.C.C | %67
 ._B,.B,.A,.A, .B,.B,.A.A | ._B.B.A.A .B.B.A.G | ^F2 z!f! (D E^FGA | =c_B) z (F GAB^c | %71
 =ed) z!p! (D EFGA | _B2 =B2 c2 ^c2) | .d.d(de) .=c.c(cd) | .B.B(Bd) (dc).B.A | %75
!f! g2 z .d g2 z .d | .g.d.g.b d'2 z2 | c'2 z .a c'2 z .a | .c'.a.f.a d2 z2 | %79
 !//![B,D]4 !//![B,D]4 | !//![CD]4 !//![CD]4 | !//![B,D]4 !//![B,D]4 | !//![CD]4 !//![CD]4 | %83
 [B,D]2 .c.c .d.d cB/A/ | .G.G.F.F G2 z2 |!p! (B4 c4) |{/B} .A2 .A2{/A} .G2 .G2 | %87
 .E2 .E2 .B,2 .A,2 | D z F z G z z2 | (B4 c4) | (BA).A.A (AG).G.G | E2 .E.E C2 .C.C | %92
 B,4- B,!p!(!///!B,CA,) | G4- G!p!(!///!GAF) | !//!B4"_cresc." !//!c4 | !//!B2 !//!d4 !//!g2 | %96
!f! !//!f4 !//!g4 | !//!f4 !//!g4 | !//!f2 !//!g2 !//!f2 !//!g2 | .f.D.D.D D2 z2 | %100
!p! (D3 (3=C/B,/A,/ G,) z E z | C z A, z D z z2 | (B3 (3A/G/F/ E) z c z | (B4 A2) z2 | %104
 (d3 (3c/B/A/ G) z e z | c z A z d2 z c | (cB) z .c (cB) z C | .B,.B,.C.C .D.D.B,.B, | %108
 .A,.A,.B,.B, .C.C.A,.A, | .B,.B,.C.C .D.D.B,.B, | .A,.A,.B,.B, .C.C.A,.A, | %111
 B,2 z2!f! (!///![EB]4 | A2) z2 (!///![DA]4 | G).B.c.d (cd/e/ d).c | (cB).G.B (BA).G.F | %115
 .G!p!.B,.C.C .D.D.B,.B, | .A,.A,.B,.B, .C.C.A,.A, | .B,.B.c.c .d.d.B.B | .A.A.B.B .c.c.A.A | %119
 B2 z2!f! (!///!b4 | a2) z2 (!///!a4 | g).B.c.d (cd/e/ d).c | .d.g.b.d' (d'c').b.a | %123
 .g.D.E.F .G.G (!///!A2 | .B).F.G.A .B.B (!///!c2 | .d).d (!///!^d2 e2) z2 |!p! (C8 | B,2) z2 z4 | %128
 (C8 | B,2) z2 B2 z2 | e2 z2!f! [cf]2 z2 | !//![B,D]4 !//![B,D]4 | %132
 !//![B,D]4 !//![B,D]2 !//![CD]2 | !//![B,D]4 !//![B,D]4 | !//![B,D]4 !//![B,D]2 !//![CD]2 | %135
 [B,D]2 z2 [DB]2 z2 | .[DB]2 .[G,G]>[G,G] [G,G]2 z2 :|[K:C][M:2/2]!p! C z C z | (CG,CE) (DB,DF) | %139
 (E>C) E z .A (A2 G) | .F (F2 E) (ED/) z/ (DC/) z/ | (E>C)B, z!f! (CG,CG,) | (CG,CE) (DB,DF) | %143
 (E>C) E z (Gc/) z/ (CG/) z/ | (Ac){B} (AG/F/) E2 (G/F/E/F/) | E2 z2 :: z4 |!p! !/!D4 EEGG | %148
 (!///!c2 B) z z4 |"_cresc." DDFF EECC |!f! B,2 z2!p! (CG,CG,) | (^CG,CE) (DA,DF) | %152
 (E>C) E z!f! (cE/) z/ (FB/) z/ | (cE/) z/ (cD/) z/ !///!E2 (G/F/E/F/) | E2 z2 ::!p! .C.C.C.C | %156
 (^C2 D) z .E.E.E.E | (EG/F/ E/D/C/B,/ .C).c.c.c | B2 z _B, =B,2 z C | (!///!C2 B,) z :: .E.E.E.D | %161
 ^C2 z2 .D.D.D.=C | B,2 z2 .G.G.c.c | B2 z (^G A2) z (^D | E2) z (d ^c).c.=c.c | %165
 B2 z (d c2) z (^d | e2) z .A (^GB) .E.A | (^GB) .E.A (GB) .E z | z4 z2 z .d | %169
 (^ce).A.B (=c3 B/A/) | G (B,2 D) C z C z | (CG,CE) (DB,DF) | (E>C) E z .A (A2 G) | %173
 .F (F2 E) (ED/) z/ (DC/) z/ | (E>C) B, z!f! (CG,CG,) | (CG,CE) (DB,DF) | %176
 (E>C) E z (Gc/) z/ (CG/) z/ | (Ac){B} (AG/F/) E2 (G/F/E/F/) | E2 z2 :: %179
[K:Eb]!p! .E/.E/.D/.D/ .E/.E/.F/.F/ | .G/.G/.A/.A/ .G/.G/.F/.F/ .E/.E/.D/.D/ .E/.E/.F/.F/ | %181
 .G/.G/.A/.A/ .G/.G/.F/.F/ .E/.E/.D/.D/ .E/.E/.G/.G/ | %182
 .F/.F/.F/.F/ .F/.F/.E/.E/ .A/.A/.A/.A/ .A/.A/.A/.A/ | .G/.G/.A/.A/ .G/.G/.F/.F/ :| %184
 .G/.G/.F/.F/ .G/.G/.A/.A/ | .B/.B/._d/.d/ .c/.c/.B/.B/ .A/.A/.G/.G/ .A/.A/.B/.B/ | %186
 .c/.c/.e/.e/ .=d/.d/.c/.c/ .=B/.B/.=A/.A/ .B/.B/.c/.c/ | %187
 .d/.d/.e/.e/ .d/.d/._A/.A/ .G/.G/.F/.F/ .G/.G/.c/.c/ | %188
 .=B/.B/.^F/.F/ .G/.G/.A/.A/ .G/.G/.D/.D/ .E/.E/.C/.C/ | %189
 .=B,/.B,/.B,/.B,/ .C/.C/.C/.C/ .B,/.B,/.F/.F/ .=E/.E/._E/.E/ | %190
 .D/.D/.F/.F/ .=E/.E/._E/.E/ .D/.D/.A,/.A,/ .G,/.G,/.C/.C/ | %191
 .=B,/.B,/.^A,/.A,/ .B,/.B,/.D/.D/ .C/.C/.B,/.B,/ .C/.C/.E/.E/ | .D/.D/.^C/.C/ .D/.D/.F/.F/ || %193
[K:C] (GG,CG,) | (CG,CE) (DB,DF) | (E>C) E z .A (A2 G) | .F (F2 E) (ED/) z/ (DC/) z/ | %197
 (E>C)B, z!f! (CG,CG,) | (CG,CE) (DB,DF) | (E>C) E z (Gc/) z/ (CG/) z/ | %200
 (Ac){B} (AG/F/) E2 (G/F/E/F/) | E2 z2 z4 |!p! !/!D4 EEGG | (c2 B) z z4 |"_cresc." DDFF EECC | %205
!f! B,2 z2!p! (CG,CG,) | (^CG,CE) (DA,DF) | (E>C) E z!f! (cE/) z/ (FB/) z/ | %208
 (cE/) z/ (cD/) z/ E2 (G/F/E/F/) | E2 z2!f! [Ec]2 z2 | [Fc]2 z2 [DA]2 z2 | %211
!p! (E3 F/4E/4D/4E/4) (G2 F>).E | (EG,CG, CG,CG,) | (CG,CE) (DB,DF) | (FDEB,) (CG,CG,) | %215
 (CG,CE) (DB,DF) | (B4 c) z z2 |][K:G][M:3/4]!f! .D2 | .G2 .A2 .B2 | c4 .A2 | .B2 .G2 .A2 | %221
{G} F2 EDEF | .G2 .A2 .B2 | .c2 !///!f2 .g2 | !///!B2 .c2 .A2 | B2 z2 ::!p! B2 | (AGFE^DF) | %228
 (EFG^GBA) | (=GFE=D^CE) |"_cresc." (DEFGAF) |!f! .G2 .A2 .B2 | .c2 !///!f2 .g2 | !///!B2 .c2 .A2 | %234
 B2 z2 ::[K:D] z2 |!p! (FDFDFD) | (FDFDFD) | (ECECEC) | (GA,GA,GA,) | (FDFDFD) | (FDFDFD) | %242
 (GABGEG) | F2 z2 ::!f! (CD | EFGABA | GFED) (EF | ^GABcdB) |!>(!"_(" (AGFEDE)!>)!"_)" | %249
!p! (FDFDFD | FDFDFD) | (ECECEC) | (GA,GA,GA,) |(FDFDFD | FDFDFD) | (GABGEG) | F2 z2 :| %257
[K:G][M:2/2] z4 |:!p! .B,.B,.D.D .G.G.B.B | !/!c4 !/!B4 | !/!A4 !/!G4 | .F.B.A.G .F.E.D.C | %262
 .B,.B,.D.D .G.G.B.B | !/!c4 !/!B4 | !/!e4 !/!c4 | .B.B.A.G .F.E.D.C |!p! .B,.B,.D.D .G.G.B.B | %267
 !/!c4 !/!B4 | !/!A4 !/!G4 | .F.B.A.G .F.E.D.C | .B,.B,.D.D .G.G.B.B | !/!c4 !/!B4 | !/!e4 !/!c4 | %273
 B2 z2 z4 |!f! !///!g4- (ga)(fd) | !///!b4- (bc')(af) | !///!g4- (ga)(fd) | b2 .b.b (bg).g.g | %278
 (gd).d.d (dB)(BG) | .d2 .[DA]2 .[DB]2 .[Bg]2 | .[Af]2 .D2 D2 z2 | z2 (F2!p! G) z A z | %282
 B z ^c z d z e z | (de^ef ^cdBG) | (!///!F4 =E2) z2 | (!///!A4!p! ^C) z D z | E z F z G z z2 | %287
 (F2 !///!f4 B2) | (!///!d4 ^c2) z2 | z8 | (BA).G.F .E2 .E2 | (GF).E.D .^C2 z2 | (BA).G.F E2 z2 | %293
 (^CD).E.=F G2 z2 | (^CD).E.=F G2 z2 | (e^cec ecec | e2) z2 z4 | .^F.F.A,.A, .D.D.F.F | %298
 !/!G4 !/!F4 | !/!A8 | .A.d.^c.B .A.G.F.E | .F.F.A,.A, .D.D.F.F | !/!G4 !/!F4 | !/!B4 !/!=c4 | %304
 !/!F4 G2 z2 | .G.G.F.F .G.G.F.F | !/!G4 !/!F4 | !/!E4 !/!^C4 | .D(FAd) (!///!^c4 | %309
 d)(DFA) (!///!B4 | A)(A,DF) !///!G4 |!f! (AB).^c.d (cB).A.G | (FG).A.B (AG).F.E | %313
 (ED).D.D (DF).E.^C | .D!p!.A,.A,.A, !/!A,4 | .A,.A,.D.D .^C.C.=C.C | !/!B,8 | %317
 .B,.B,.B.B .A.A.G.G | !/!F8 | .F.F.G.G .A.A.B.B |1 =c2 z2 z4 :|2 =c2 z2 z!f! .D.F.A |: %322
 .c2 .c2 .c2 .c2 | _E2 z2 z4 |!p! .G,.G,._B,.B, ._E.E.G.G | !/!_A4 !/!G4 | !/!=F4 !/!_E4 | %327
 .D.G.=F._E .D.C._B,._A, | .G,.G,._B,.B, ._E.E.G.G | !/!_A4 !/!G4 | !/!c4 !/!_A4 | G2 z2 z4 | %332
!f! _e4- (e=f)(d_B) | g4- (g_a)(=fd) | _e4- (e=f)(d_B) | g2 .[_B,G]2 z2 .[B,G]2 | %336
 z2 .[_B,G]2 .[B,G]2 .[B,G]2 | z2 .[=B,G]2 z2 .[B,G]2 | z2 .[B,G]2 .[B,G]2 .[B,G]2 | %339
 z2 .[C_E]2 z2 .[CE]2 | z2 .[C_E]2 .[CE]2 .[CE]2 | z2 .[C=A]2 z2 .[CA]2 | z2 .[CA]2 .[CA]2 .[CA]2 | %343
 z2 .[D_B]2 z2 .[DB]2 | z2 .[D_B]2 .[DB]2 .[DB]2 | (g_e).e.e (e_B).B.B | (_BG).G.G (G_E)(E^C) | %347
 .D2 .[DAf]2 .[D_Bg]2 .[DBg]2 | .[DAf]2 .D2 D2 z2 | z2 (=B,2!p! =C) z D z | =E z F z G z A z | %351
 (GA^AB FGEC) | (B,4 A,2) z2 | (D4!p! D) z G, z | A, z B, z C z z2 | (B,2 B4 E2) | (G4 F2) z2 | %357
 z8 | (ED).C.B, .A,2 .A,2 | (cB).A.G .F2 z2 | (AG).F.E .D2 z2 | z2 .C2 .C2 z2 | z2 .C2 C(fdf) | %363
 (afaf afaf | a2) z2 z4 | .B,.B,.D.D .G.G.B.B | !/!c4 !/!B4 | !/!A4 !/!G4 | .F.G.F.E .D.C.B,.A, | %369
 .B,.B,.D.D .G.G.B.B | !/!C4 !/!B,4 | !/!E4 !/!=F4 | !/!B,4 C2 z2 | .C.C.B,.B, .C.C.B,.B, | %374
 !/!C4 !/!B,4 | !/!E4 !/!^F4 | .G(B,DG) (F4 | G)(G,B,D) (E4 | D)(dBG) D4 |!f! (DE).F.G (FE).D.C | %380
 (B,D).G.B (dc).B.A | (AG).G.G (GB).A.F | .G!p!.B,.B,.B, !/!B,4 | !/!B,4 .A,.A,.B,.B, | !/!C8 | %385
 .C.C.G.G .=F.F.E.E | !/!D8 | .B,.B,.C.C .D.D.E.E | =F2 z2 z!f! .G,.B,.D | .=F2 .F2 .F2 .F2 | %390
 ^G,2 z2 z4 |!p! .d2 .d2 .^c2 z2 |!p! .=c2 .c2 .B2 z2 | .=G2 .G2 .G2 .G2 | ^F2 z2 z!f! .D.F.A :| %395
 .c2 .c2 .c2 .c2 | D2 z2 z4 |!p! .B,.B,.D.D .G.G.B.B | !/!c4 !/!B4 | !/!A4 !/!G4 | %400
 .F.B.A.G .F.E.D.C | .B,.B,.D.D .G.G.B.B | !/!c4 !/!B4 | !/!e4 !/!c4 | B2 (G2 A2 B2) | %405
 z2 (A2 G2 F2) | z2 (G2 A2 B2) | z2 (A2 G2 F2) | z2 (G2 A2 B2) | z2 (A2 F2) .c2 | B4 (dcBA) | %411
 (GA^AB) (B=AGF) | G2 z2 z2!f! .g2 | .f2 .g2 (=a3 b/c'/) | (^a2 b2) z2 .g2 | .f2 .g2 (a3 b/c'/) | %416
 (^a2 b2) z2 .g2 | .f2 .g2 (a3 b/c'/) | (bg).g.g (gB).B.B | (ec).c.c (BG).A.F | %420
!f! .G.[G,G].[G,G].[G,G] !/![G,G]4 | !/![G,G]8 | !/![G,G]8 | !/![G,G]8 | !/![G,G]8 | !/![G,G]8 | %426
 !/![G,G]8 | !/![G,G]8 |!f! [G,G]2 z2 [DBg]2 z2 | !//!G,4 z4 |] %430
V:3
!f! G2 z .D G2 z .D | .G.D.G.B d2 z2 | c2 z .A c2 z .A | .c.A.F.A D2 z2 | !/!G8 | !/!A4 (Ac)(FA) | %6
 !/!G8 | !/!A4 (Ac)(FA) | !//!D4 !//!D4 | !//!D4 D2 z2 | z8 |!p! (F,4 G,4) | .C2 .C2 .A,2 .D,2 | %13
 D, z D z D2 z2 | z8 | (F4 G4) | C2 .C.C A,2 .A,.A, | !/!G,4!p! !/!G,4 | !/!G,4!p! !/!G,4 | %19
 G,GGG"_cresc." GGAA | GGFF GGEE |!f! !//![DA]4 !//![EA]4 | !//![DA]4 !//![EA]4 | %23
 .F.G.A.G .F.G.A.G | .B.A.G.A .B.A.^G.A | !/!A4 !/!A4 | .A.A,.A,.A, A,2 z2 | z4 z2!p! F z | %28
 B, z =G z E z ^C z | z2 (E2 D) z E z | (!///!D4 ^C2) z2 | z2 (^C2 D) z F z | B, z G, z E, z E z | %33
 (ED) z2 z4 | .D.D.E.E .F.F.D.D | .^C.C.D.D .E.E.C.C | .D.D.E.E .F.F.D.D | .^C.C.D.D .E.E.C.C | %38
!f! .D.D.F.E .^D.B,.^C.D | .E.G.E.=D .^C.A,.B,.C | .D.d.d.d !/!d4 | (dA).A.A .A.A.A.G | %42
 .F!p!.D.E.E .F.F.D.D | .^C.C.D.D .E.E.C.C | .D.D.E.E .F.F.D.D | .^C.C.D.D .E.E.C.C | %46
!f! .D.D.F.E .^D.B,.^C.D | .E.G.E.=D .^C.A,.B,.C | .D.d.d.d !/!d4 | (dA).A.A .A.A.A.G | %50
 .F.A,.B,.^C .D.D.E.E | .F.^C.D.E .F.F.G.G | .A.A.^A.A B2 z2 |!p! (E6 D^C) | D z D z D z z2 :: %55
!f! D2 z .A, D2 z .A, | .D.A,.D.F A2 z2 | A2 z .F A2 z .F | .A.F.^D.F B,2 z2 | %59
!p! .=C.C.D.D .E.E.C.C | .B,.B,.C.C .D.D.B,.B, | .C.C.D.D .E.E.C.C | .B,.B,.C.C .D.D.B,.B, | %63
 .C.C.D.D .E.E.C.C | .B,.B,.C.C .D.D.B,.B, | .A,.A,.B,.B, .C.C.A,.A, | .A,.A,._B,.B, .C.C.A,.A, | %67
 .G,.G,.^F,.F, .G,.G,.^F.F | .G.G.^F.F .G.G,.^F,.G, | A,2 z!f! (D, E,^F,G,A, | %70
 =C_B,) z (F, G,A,B,^C | =ED) z2 z4 | z8 |!p! .=B.B(B=c) .A.A(AB) | .G.G(GB) (BA).G.D | %75
!f! G2 z .D G2 z .D | .G.D.G.B d2 z2 | c2 z .A c2 z .A | .c.A.F.A D2 z2 | !/!G8 | !/!A4 (Ac)(FA) | %81
 !/!G8 | !/!A4 (Ac)(FA) | !//!D4 !//!D4 | !//!D4 D2 z2 | z8 |!p! (F,4 G,4) | .C2 .C2 .A,2 .D,2 | %88
 D, z D z D2 z2 | z8 | (F4 G4) | C2 .C.C A,2 .A,.A, | !/!G,4!p! !/!G,4 | !/!G,4!p! !/!G,4 | %94
 G,GGG"_cresc." GGAA | GGFF GGEE |!f! !//![DA]4 !//![EA]4 | !//![DA]4 !//![EA]4 | %98
 !//![DA]2 !//![EA]2 !//![DA]2 !//![EA]2 | .[DA][K:bass].D,.D,.D, D,2 z2 | z4 z2!p! B, z | %101
 E, z C z A, z F, z | z2 (A2 G) z A z | (G4 F2) z2 | z2 (F2 G) z B z | E z C z A,2 z A | %106
 (AG) z2 z4 | .G,.G,.A,.A, .B,.B,.G,.G, | .F,.F,.G,.G, .A,.A,.F,.F, | .G,.G,.A,.A, .B,.B,.G,.G, | %110
 .F,.F,.G,.G, .A,.A,.F,.F, |!f! .G,.G.B.A .^G.E.F.G | .A.c.A.=G .F.D.E.F | !/!.G4 !/!G4 | %114
 (GD).D.D .D.D.D.C | .B,!p!.G,.A,.A, .B,.B,.G,.G, | .F,.F,.G,.G, .A,.A,.F,.F, | %117
 .G,.G.A.A .B.B.G.G | .F.F.G.G .A.A.F.F |!f! .G.G.B.A .^G.E.F.G | .A.c.A.=G .F.D.E.F | %121
 !/!.G4 !/!G4 | (GB).d.d .d.d.d.c | .B.D.E.F .G.G.A.A | .B.F,.G,.A, .B,.B,.C.C | .D.D.^D.D E2 z2 | %126
!p! (A,6 G,F,) | G,2 z2 z4 | (A,6 G,F,) | G,2 z2 G2 z2 | E2 z2!f! [DA]2 z2 | !//!G,4 !//!G,4 | %132
 !//!G,4 !//!G,2 !//!A,2 | !//!G,4 !//!G,4 | !//!G,4 !//!G,2 !//!A,2 | .G,.B,.D.G .B.G.d.B | %136
 .G2 .G,>G, G,2 z2 :|[K:C][M:2/2] z4 | z8 | z8 | z8 | z8 |!f! G4 (!///!B3 A/B/) | c2 z2 E2 E2 | %144
 (F3 A) G2 G,2 | C2 z2 :: z4 |!p! !/!B,4 CCEE | G2 z2 z4 |"_cresc." B,B,DD CCA,A, |!f! D,2 z2 z4 | %151
 z8 | z4!f! !///![G,G]4- | !///![G,G]2 (A2 !///!G2 B,2) | C2 z2 ::!p! .G.G.G.G | G2 z2 .G.G.G.G | %157
 !///!G2 z2 .G.G.D.D | D2 z G, G,2 z A, | (!///!^F,2 G,) z :: .B.B._B.B | A2 z2 .A.A._A.A | %162
 G2 z2 .C.C.E.E | E2 z (D C2) z (=A, | B,2) z (B A).A.A.A | E2 z (B A2) z (A | B2) z (^D E2) z2 | %167
 z2 z .A, (^G,B,) .E,.A, | (^G,B,) .E, z z4 | z8 | z (=G,G).G G2 z2 | z8 | z8 | z8 | z8 | %175
!f! G4 !///!B4 | c2 z2 E2 E2 | (F3 A) G2 G,2 | C2 z2 ::[K:Eb]!p! .C/.C/.=B,/.B,/ .C/.C/.D/.D/ | %180
 .E/.E/.F/.F/ .E/.E/.D/.D/ .C/.C/.=B,/.B,/ .C/.C/.D/.D/ | %181
 .E/.E/.F/.F/ .E/.E/.D/.D/ .C/.C/.=B,/.B,/ .C/.C/.E/.E/ | %182
 .D/.D/.D/.D/ .D/.D/.E/.E/ .C/.C/.C/.C/ .F/.F/.F/.F/ | .E/.E/.F/.F/ .E/.E/.D/.D/ :| %184
 .E/.E/.D/.D/ .E/.E/.F/.F/ | .G/.G/._B/.B/ .A/.A/.G/.G/ .F/.F/.=E/.E/ .F/.F/.G/.G/ | %186
 .A/.A/.c/.c/ .B/.B/.=A/.A/ .G/.G/.^F/.F/ .G/.G/.A/.A/ | %187
 .=B/.B/.c/.c/ .B/.B/.=B,/.B,/ .C/.C/.D/.D/ .E/.E/.=A/.A/ | %188
 .D/.D/.C/.C/ .=B,/.B,/.B,/.B,/ .C/.C/._A,/.A,/ .G,/.G,/.^F,/.F,/ | %189
 .G,/.G,/.=F,/.F,/ .=E,/.E,/._E,/.E,/ .D,/.D,/.D/.D/ .C/.C/.C/.C/ | %190
 .=B,/.B,/.D/.D/ .C/.C/.C/.C/ .B,/.B,/.F,/.F,/ .E,/.E,/.A,/.A,/ | %191
 .G,/.G,/.^F,/.F,/ .G,/.G,/.=B,/.B,/ .=A,/.A,/.^G,/.G,/ .A,/.A,/.C/.C/ | %192
 .=B,/.B,/.^A,/.A,/ .B,/.B,/.D/.D/ ||[K:C] C z z2 | z8 | z8 | z8 | z8 |!f! G4 (TB3 A/B/) | %199
 c2 z2 E2 E2 | (F3 A) G2 G,2 | C2 z2 z4 |!p! !/!B,4 CCEE | G2 z2 z4 |"_cresc." B,B,DD CCA,A, | %205
!f! D,2 z2 z4 | z8 | z4!f! [G,G]4- | [G,G]2 (A2 G2 B,2) | C2 z2!f! E2 z2 | F2 z2 ^F2 z2 | %211
!p! (G4 B,4) | C2 z2 z4 | G8- | G8- | G6 (B,D) | (F4 E) z z2 |][K:G][M:3/4] z2 |!f! .B2 .F2 .G2 | %219
 .A2 .E2 .F2 | .G2 .E2 .^C2 | (DAGFGA) | .B2 .=c2 (BG) | .F2 (c2 B2) | z2 .E2 .[CD]2 | [B,D]2 z2 :: %226
 z2 | z2 z2!p! C2 | (B,2 G,2) z2 | z2 z2 _B,2 |"_cresc." (A,^CDEFD) |!f! .d2 .F2 .G2 | %232
 .F2 (c2 B2) | z2 .E2 .[CD]2 | [B,D]2 z2 ::[K:D] z2 |!p! (DA,DA,DA,) | (DA,DA,DA,) | (CA,CA,CA,) | %239
 (CECECE) | (DA,DA,DA,) | (DB,DB,DB,) | (EFGECE) | D2 z2 ::!f! (A,B,) | (CDEFGF) | (EDCD) (E^D) | %247
 (=DCB,A,^G,D) | C2 z2 z2 |!p! (DA,DA,DA, | DA,DA,DA,) | (CA,CA,CA,) | (CECECE) |(DA,DA,DA,) | %254
 (DB,DB,DB,) | (EFGECE) | D2 z2 :|[K:G][M:2/2] z4 |:!p! .G,.G,.B,.B, .D.D.G.G | !/!A4 !/!G4 | %260
 !/!D4 !/!D4 | .D.G.F.E .D.C.B,.A, | .G,.G,.B,.B, .D.D.G.G | !/!A4 !/!G4 | !/!G4 .F.F.G.A | %265
 .G.G.F.E .D.C.B,.A, |!p! .G,.G,.B,.B, .D.D.G.G | !/!A4 !/!G4 | !/!D4 !/!D4 | .D.G.F.E .D.C.B,.A, | %270
 .G,.G,.B,.B, .D.D.G.G | !/!A4 !/!G4 | !/!G4 .F.F.G.A |!f! G[B,D][B,D][B,D] !/![CD]4 | %274
 !/![B,D]4 !/![CD]4 | [B,D]2 (G3 A)(FD) | !///!B4- (Bc)(AF) | G2 .B.B (BG).G.G | %278
 (GD).D.D (DB,)(B,G,) | .D.d.c.d .B.d.B.G | .D2 .D2 .D2 z2 | z2 (D2!p! E) z F z | %282
 G z A z B z ^c z | d2 z2[K:bass] G,2 z2 | (A,^G,A,G, A,B,=G,E, | D,) z (F,2!p! G,) z A, z | %286
 B, z ^C z D z E z | (!///!A,4 B,2 D2) | (!///!^G4 A2) z2 | z8 | z8 | (^C,D,).E,.F, G,2 z2 | %292
 (^CD).E.F G2 z2 | z2 .^C.D E2 z2 | z2 .^C.D E2 z2 | (A2 _B2 A2 B2 | A2) z2 z4 | %297
 .D.D.^F,.F, .A,.A,.D.D | !/!E4 !/!D4 | !/!E4 !/!D4 | .^C.B.A.G .F.E.D.C | .D.D.F,.F, .A,.A,.D.D | %302
 !/!E4 !/!D4 | !/!D8 | !/!D4 D2 z2 | .E.E.^D.D .E.E.D.D | !/!E4 !/!=D4 | !/!B,4 !/!A,4 | %308
 !///!A,4- A,(^CEA,) | !///!A4- (ABGA) | !///!F4- (FGE^C) |!f! (DA).A.A (A^C).C.C | %312
 (DE).F.G (FE).A.G | (GF).F.F (FA).G.E | D!p!F,F,F, !/!F,4 | !/!F,8 | !/!G,8 | %317
 .G,.G,.D.D .=C.C.B,.B, | !/!A,8 | .D.D.E.E .F.F.G.G |1 [FA]2 z2 z4 :|2 [FA]2 z2 z!f! .D.F.A |: %322
 .c2 .c2 .c2 .c2 | _E2 z2 z4 |!p! ._E,.E,.G,.G, ._B,.B,._E.E | !/!=F4 !/!_E4 | !/!_B,4 !/!B,4 | %327
 ._B,._E.D.C .B,._A,.G,.=F, | ._E,.E,.G,.G, ._B,.B,._E.E | !/!=F4 !/!_E4 | !/!_E4 .D.D.E.=F | %331
!f! (_E_B,G,B, _A,B,A,B,) | (G,_B,G,B, _A,B,A,B,) | G,2 (_E3 =F)(D_B,) | G4- (G_A)(=FD) | %335
 _E2 .[G,E]2 z2 .[G,E]2 | z2 .[G,_E]2 .[G,E]2 .[G,E]2 | z2 .[G,=F]2 z2 .[G,F]2 | %338
 z2 .[G,=F]2 .[G,F]2 .[G,F]2 | z2 .[G,G]2 z2 .[G,G]2 | z2 .[G,G]2 .[G,G]2 .[G,G]2 | %341
 z2 .[=A,D]2 z2 .[A,D]2 | z2 .[A,D]2 .[A,D]2 .[A,D]2 | z2 .[_B,G]2 z2 .[B,G]2 | %344
 z2 .[_B,G]2 .[B,G]2 .[B,G]2 | (G_E).E.E (E_B,).B,.B, | (_B,G,).G,.G, (G,_E,)(E,^C,) | %347
 .D,.D.=C.D ._B,.D.B,.G, | .D2 .D,2 .D,2 z2 | z2 (G,2!p! A,) z =B, z | C z D z =E z ^F z | %351
 G2 z2 C,2 z2 | (D,^C,D,C, D,^D,E,F, | G,) z (B,2!p! =C) z =D, z | E, z F, z G, z A, z | %355
 (B,2 E4 G2) | (^c4 d2) z2 | z8 | z8 | (F,G,).A,.B, C2 z2 | (F,G,).A,.B, C2 z2 | %361
 (F,G,).A,.A, A,2 z2 | (F,G,).A,.A, A,2 z2 | (d2 _e2 d2 e2 | d2) z2 z4 | .G,.G,.B,.B, .D.D.G.G | %366
 !/!A4 !/!G4 | !/!D8 | .D.E.D.C .B,.A,.G,.F, | .G,.G,.B,.B, .D.D.G.G | !/!A,4 !/!G,4 | !/!G,8 | %372
 !/!G,4 G,2 z2 | .A,.A,.^G,.G, .A,.A,.G,.G, | !/!A,4 !/!=G,4 | !/!A,4 !/!D4 | D,4- D,(F,A,D,) | %377
 D4- (DECD) | B,4- (B,CA,F,) |!f! (G,D).D.D (DF).F.F | (GB)(B,D Eedc) | (cB).B.B (Bd).c.A | %382
 G!p!G,G,G, !/!G,4 | !/!G,4 .F,.F,.=F,.F, | !/!E,8 | .E,.E,.E.E .D.D.C.C | !/!B,8 | %387
 .G,.G,.A,.A, .B,.B,.C.C | [B,D]2 z2 z!f! .G,.B,.D | .=F2 .F2 .F2 .F2 | ^G,2 z2 z4 | %391
!p! .[^GB]2 .[GB]2 .A2 z2 |!p! .[^FA]2 .[FA]2 .=G2 z2 | .E2 .E2 ._E2 .E2 | D2 z2 z!f! .D.F.A :| %395
[K:treble] .c2 .c2 .c2 .c2 | D2 z2 z4 |!p! .G,.G,.B,.B, .D.D.G.G | !/!A4 !/!G4 | !/!D8 | %400
 .D.G.F.E .D.C.B,.A, | .G,.G,.B,.B, .D.D.G.G | !/!A4 !/!G4 | !/!G4 .F.F.G.A | G2 (B,2 C2 D2) | %405
 z2 (C2 B,2 A,2) | z2 (B,2 C2 D2) | z2 (C2 B,2 A,2) | z2 (B,2 C2 D2) | z2 (C2 A,2) .A2 | (G6 E2) | %411
 D8 | [B,D]2 z2 z4 | z2 z2 z!f! .D.F.A | .d2 .d2 .d2 .d2 | D,2 z2 z .D.F.A | .d2 .d2 .d2 .d2 | %417
 D,2 z2 z .D.F.A | (GD).D.D .D.D.D.D | (CG).G.G .D.D.[CD].[CD] |!f! !/![B,D]8 | !/![B,D]8 | %422
 !/![B,D]8 | !/![B,D]8 | !/![B,D]8 | !/![B,D]8 | !/![B,D]8 | !/![B,D]8 |!f! [B,D]2 z2 G2 z2 | %429
 !//!G,4 z4 |] %430
V:4
 x8 | x8 | x8 | x8 | x8 | x8 | x8 | x8 | x8 | x8 | x8 | x8 | x8 | x8 | x8 | x8 | x8 | x8 | x8 | %19
 x8 | x8 | x8 | x8 | x8 | x8 | x8 | x8 | x8 | x8 | x8 | x8 | x8 | x8 | x8 | x8 | x8 | x8 | x8 | %38
 x8 | x8 | x8 | x8 | x8 | x8 | x8 | x8 | x8 | x8 | x8 | x8 | x8 | x8 | x8 | x8 | x8 :: x8 | x8 | %57
 x8 | x8 | x8 | x8 | x8 | x8 | x8 | x8 | x8 | x8 | x8 | x8 | x8 | x8 | x8 | x8 | x8 | x8 | x8 | %76
 x8 | x8 | x8 | x8 | x8 | x8 | x8 | x8 | x8 | x8 | x8 | x8 | x8 | x8 | x8 | x8 | x8 | x8 | x8 | %95
 x8 | x8 | x8 | x8 | x[K:bass] x7 | x8 | x8 | x8 | x8 | x8 | x8 | x8 | x8 | x8 | x8 | x8 | x8 | %112
 x8 | x8 | x8 | x8 | x8 | x8 | x8 | x8 | x8 | x8 | x8 | x8 | x8 | x8 | x8 | x8 | x8 | x8 | x8 | %131
 x8 | x8 | x8 | x8 | x8 | x8 :|[K:C][M:2/2] x4 | x8 | x8 | x8 | x8 | x8 | x8 | x8 | x4 :: x4 | x8 | %148
 x8 | x8 | x8 | x8 | x8 | x8 | x4 :: x4 | x8 | x8 | x8 | x4 :: x4 | x8 | x8 | x8 | x8 | x8 | x8 | %167
 x8 | x8 | x8 | x8 | x8 | x8 | x8 | x8 | x8 | x8 | x8 | x4 ::[K:Eb] x4 | x8 | x8 | x8 | x4 :| x4 | %185
 x8 | x8 | x8 | x8 | x8 | x8 | x8 | x4 ||[K:C] x4 | x8 | x8 | x8 | x8 | x8 | x8 | x8 | x8 | x8 | %203
 x8 | x8 | x8 | x8 | x8 | x8 | x8 | x8 | x8 | x8 | x8 | x8 | x8 | x8 |][K:G][M:3/4] x2 | x6 | x6 | %220
 x6 | x6 | x6 | x6 | x6 | x4 :: x2 | x6 | x6 | x6 | x6 | x6 | x6 | x6 | x4 ::[K:D] x2 | x6 | x6 | %238
 x6 | x6 | x6 | x6 | x6 | x4 :: x2 | x6 | x6 | x6 | x6 | x6 | x6 | x6 | x6 | x6 | x6 | x6 | x4 :| %257
[K:G][M:2/2] x4 |: x8 | x8 | x8 | x8 | x8 | x8 | x8 | x8 | x8 | x8 | x8 | x8 | x8 | x8 | x8 | x8 | %274
 x8 | x8 | x8 | x8 | x8 | x8 | x8 | x8 | x8 | x4[K:bass] x4 | x8 | x8 | x8 | x8 | x8 | x8 | x8 | %291
 x8 | x8 | x8 | x8 | x8 | x8 | x8 | x8 | x8 | x8 | x8 | x8 | x8 | x8 | x8 | x8 | x8 | x8 | x8 | %310
 x8 | x8 | x8 | x8 | x8 | x8 | x8 | x8 | x8 | x8 |1 x8 :|2 x8 |: x8 | x8 | x8 | x8 | x8 | x8 | x8 | %329
 x8 | x8 | x8 | x8 | x8 | x8 | x8 | x8 | x8 | x8 | x8 | x8 | x8 | x8 | x8 | x8 | x8 | x8 | x8 | %348
 x8 | x8 | x8 | x8 | x8 | x8 | x8 | x8 | x8 | x8 | x8 | x8 | x8 | x8 | x8 | x8 | x8 | x8 | x8 | %367
 x8 | x8 | x8 | x8 | x8 | x8 | x8 | x8 | x8 | x8 | x8 | x8 | x8 | x8 | x8 | x8 | x8 | x8 | x8 | %386
 x8 | x8 | x8 | x8 | x8 | x8 | x8 | x8 | x8 :|[K:treble] x8 | x8 | x8 | x8 | x8 | x8 | x8 | x8 | %403
 x8 | x8 | x8 | x8 | x8 | x8 | x8 | x8 | D6 C2 | x8 | x8 | x8 | x8 | x8 | x8 | x8 | x8 | x8 | x8 | %422
 x8 | x8 | x8 | x8 | x8 | x8 | x8 | x8 |] %430
V:5
!f! G,2 z .D, G,2 z .D, | .G,.D,.G,.B, D2 z2 | C2 z .A, C2 z .A, | .C.A,.F,.A, D,2 z2 | !/!G,8 | %5
 !/!G,8 | !/!G,8 | !/!G,8 | .G,.G,.A,.A, .B,.B,.F,.F, | .G,.G,.A,.A, B,2 z2 | z8 |!p! (D,4 E,4) | %12
 .C,2 .C,2 .D,2 .D,2 | B,, z D, z G,2 z2 | z8 | (D,4 E,4) | .C,2 .C,2 .D,2 .D,2 | %17
 !/!G,4!p! !/!G,4 | !/!G,4!p! !/!G,4 | G,G,G,G,"_cresc." G,G,A,A, | G,G,F,F, G,G,E,E, |!f! !/!D,8 | %22
 !/!D,8 | .D,.E,.F,.E, .D,.E,.F,.E, | .G,.A,.B,.A, .G,.A,.B,.^G, | !/!A,4 !/!A,4 | %26
 .A,.A,,.A,,.A,, A,,2 z2 | z4 z2!p! ^D, z | E, z =D, z ^C, z A,, z | z2 (^A,,2 B,,) z =G,, z | %30
 =A,,2 (A,3 ^G,=G,E,) | D, z E, z F, z ^D, z | E, z =D, z ^C, z A,, z | B,, z G, z A, z A,, z | %34
 D,2 z2 z4 | A,,2 z2 z4 | D,2 z2 z4 | A,,2 z2 z4 |!f! z .D,.F,.E, .^D,.B,,.^C,.D, | %39
 .E,.G,.E,.=D, .^C,.A,,.B,,.C, | .D,.D,.E,.F, !/!G,4 | !/!A,4 !/!A,,4 | D,2 z2 z4 |!p! A,,2 z2 z4 | %44
 D,2 z2 z4 | A,,2 z2 z4 |!f! z .D,.F,.E, .^D,.B,,.^C,.D, | .E,.G,.E,.=D, .^C,.A,,.B,,.C, | %48
 .D,.D,.E,.F, !/!G,4 | !/!A,4 !/!A,,4 | .D,.A,,.B,,.^C, .D,.D,.E,.E, | .F,.^C,.D,.E, .F,.F,.G,.G, | %52
 .A,.A,.^A,.A, B,2 z2 |!p! (G,4 =A,4) | D, z D, z D, z z2 ::!f! D,2 z .A,, D,2 z .A,, | %56
 .D,.A,,.D,.F, A,2 z2 | A,2 z .F, A,2 z .F, | .A,.F,.^D,.F, B,,2 z2 |!p! =C,2 z2 z4 | G,,2 z2 z4 | %61
 C,2 z2 z4 | G,,2 z2 z4 | C,2 z2 z4 | E,2 z2 z4 | A,,2 z2 z4 | D,2 z2 z4 | _E,8- | E,8 | %69
 D,2 z!f! (D, E,^F,G,A, | =C_B,) z (F, G,A,B,^C | =ED) z2 z4 | z8 | z8 |!p! D,8 | %75
!f! G,2 z .D, G,2 z .D, | .G,.D,.G,.B, D2 z2 | C2 z .A, C2 z .A, | .C.A,.F,.A, D,2 z2 | !/!G,8 | %80
 !/!G,8 | !/!G,8 | !/!G,8 | .G,.G,.A,.A, .B,.B,.F,.F, | .G,.G,.A,.A, B,2 z2 | z8 |!p! (D,4 E,4) | %87
 .C,2 .C,2 .D,2 .D,2 | B,, z D, z G,2 z2 | z8 | (D,4 E,4) | .C,2 .C,2 .D,2 .D,2 | %92
 !/!G,4!p! !/!G,4 | !/!G,4!p! !/!G,4 | G,G,G,G,"_cresc." G,G,A,A, | G,G,F,F, G,G,E,E, |!f! !/!D,8 | %97
 !/!D,8 | !/!D,4 !/!D,4 | !/!D,4 D,2 z2 | z4 z2!p! ^G, z | A, z =G, z F, z D, z | %102
 z2 (^D,2 E,) z C, z | =D,2 (D3 ^C=CA,) | G, z A, z B, z ^G, z | A, z =G, z F, z D, z | %106
 E, z C, z D, z D, z | G,,2 z2 z4 | D,2 z2 z4 | G,,2 z2 z4 | D,2 z2 z4 | %111
!f! z .G,.B,.A, .^G,.E,.F,.G, | .A,.C.A,.=G, .F,.D,.E,.F, | .G,.G,.A,.B, !/!C4 | !/!D4 !/!D,4 | %115
 G,2 z2 z4 |!p! D,2 z2 z4 | G,2 z2 z4 | D,2 z2 z4 |!f! z .G,.B,.A, .^G,.E,.F,.G, | %120
 .A,.C.A,.=G, .F,.D,.E,.F, | .G,.G,.A,.B, !/!C4 | !/!D4 !/!D,4 | .G,.D,.E,.F, .G,.G,.A,.A, | %124
 .B,.F,.G,.A, .B,.B,.C.C | .D.D.^D.D E2 z2 |!p! (C,4 =D,4) | G,,2 z2 z4 | (C,4 =D,4) | G,,2 z2 z4 | %130
 C,2 z2!f! D,2 z2 | !/!G,,4 !/!G,,4 | !/!G,,4 !/!G,,4 | !/!G,,4 !/!G,,4 | !/!G,,4 !/!G,,4 | %135
 .G,,.B,,.D,.G, .B,.G,.D.B, | .G,2 .G,,>G,, G,,2 z2 :|[K:C][M:2/2] z4 |!p! C,2 C,2 C,2 C,2 | %139
 C,2 C,2 z2 C,2 | z2 (C,2 B,,2 C,2) | G,2 G,,2 z4 |!f! C,2 C,2 C,2 C,2 | C,2 C,2 E,2 E,2 | %144
 F,2 F,2 G,2 G,,2 | C,2 z2 :: z4 |!p! G,,2 G,,2 G,,2 G,,2 | G,,2 z2 z4 | %149
"_cresc." G,,2 G,2 G,2 G,2 |!f! G,,2 z2 z4 |!p! (A,,4 D,2 B,,2) | C,2 z2!f! E,2 D,2 | %153
 C,2 F,2 !///!G,2 G,,2 | C,2 z2 ::!p! .C.C.C.C | G,2 z2 .C,.C,.C,.C, | !///!G,,2 z2 .C.C.A,.A, | %158
 G,2 z E, D,2 z D, | (!///!G,,2 G,,) z :: .E,.E,.G,.G, | A,2 z2 .D,.D,.F,.F, | G,2 z2 .C.C.A,.A, | %163
 ^G,2 z (E, F,2) z (F, | E,2) z (^G, A,).A,.A,.A, | ^G,2 z (E, F,2) z (F, | E,2) z (F, E,2) z2 | %167
 z4 z2 z .A,, | (^G,,B,,) .E,, z z4 | z4 z2 z .C, | (B,,D,).=G,,.B,, C,2 z2 | !///!C,8 | %172
 C,2 C,2 z2 C,2 | z2 (C,2 B,,2 C,2) | G,2 G,,2 z4 |!f! !///!C,8- | !///!C,4 E,2 E,2 | %177
 F,2 F,2 G,2 G,,2 | C,2 z2 ::[K:Eb] z4 | z2!p! G,(!///!=B,, C,) z z2 | z2 G,(!///!=B,, C,) z z2 | %182
 (_B,,3 C, ._A,,).A,,.B,,.B,, | E,, z2 z :| z4 | z2 C(!///!=E, F,) z z2 | z2 D(!///!^F, G,) z z2 | %187
 z4 z2 C(!///!^F, | G,)(!///!A,G,)(!///!=F, _E,)(!///!=B,, C,)(!///!_A,, | %189
 G,,) z z2 G,(!///!=B,, C,) z | G,(!///!=B,, C,) z G,(!///!B,, C,) z | z8 | G,,3 =A,,/=B,,/ || %193
[K:C] C, z z2 |!p! C,2 C,2 C,2 C,2 | C,2 C,2 z2 C,2 | z2 (C,2 B,,2 C,2) | G,2 G,,2 z4 | %198
!f! C,2 C,2 C,2 C,2 | C,2 C,2 E,2 E,2 | F,2 F,2 G,2 G,,2 | C,2 z2 z4 |!p! G,,2 G,,2 G,,2 G,,2 | %203
 G,,2 z2 z4 |"_cresc." G,,2 G,2 G,2 G,2 |!f! G,,2 z2 z4 |!p! (A,,4 D,2 B,,2) | C,2 z2!f! E,2 D,2 | %208
 C,2 F,2 G,2 G,,2 | C,2 z2!f! E,,2 z2 | F,,2 z2 ^F,,2 z2 |!p! (G,,8 | C,2) z2 z4 | (G,,8 | %214
 C,2) z2 z4 | (G,,8 | C,) z G,, z C,, z z2 |][K:G][M:3/4] z2 |!f! .B,2 .F,2 .G,2 | .A,2 .E,2 .F,2 | %220
 .G,2 .E,2 .^C,2 | .D,2 .D2 .=C2 | .B,2 .F,2 .G,2 | .A,2 .D,2 .G,2 | .E,2 .C,2 .D,2 | G,,2 G,2 :: %226
 z2 | z2 z2!p! A,2 | (G,2 E,2) z2 | z2 z2 F,2 |"_cresc." D,2 D2 C2 |!f! .B,2 .A,2 .G,2 | %232
 .F,2 .D,2 .G,2 | .E,2 .C,2 .D,2 | G,,2 G,2 ::[K:D] z2 |!p! .D,,2 .D,2 z2 | .D,,2 .D,2 z2 | %238
 .A,,2 .A,2 z2 | .A,,2 .A,2 z2 | .D,2 .D2 z2 | .B,,2 .B,2 z2 | .G,2 .D,2 .A,2 | .D,2 .D2 :: z2 | %245
!f! A,,2 z2 (C,2 | D,2) z2 z2 | E,2 z2 E,,2 | .A,,2 .A,2 z2 |!p! .D,,2 .D,2 z2 | .D,,2 .D,2 z2 | %251
 .A,,2 .A,2 z2 | .A,,2 .A,2 z2 | .D,2 .D2 z2 | .B,,2 .B,2 z2 | .G,2 .D,2 .A,2 | .D,2 .D2 :| %257
[K:G][M:2/2] z4 |:!p! G,4 z4 | .D,2 z2 .G,2 z2 | .F,2 z2 .G,2 z2 | .D,2 z2 z4 | G,4 z4 | %263
 .D,2 z2 .E,2 z2 | .C,2 z2 .D,2 z2 | .G,2 .G,2 .B,,2 .D,2 |!p! G,4 z4 | .D,2 z2 .G,2 z2 | %268
 .F,2 z2 .G,2 z2 | .D,2 z2 z4 | G,4 z4 | .D,2 z2 .E,2 z2 | .C,2 z2 .D,2 z2 | %273
!f! .G,,.G,.G,.G, !/!G,4 | .G,,.G,.G,.G, !/!G,4 | !///!G,4- (G,A,)(F,D,) | !///!B,4- (B,C)(A,F,) | %277
 G,2 .B,.B, (B,G,).G,.G, | (G,D,).D,.D, (D,B,,)(B,,G,,) | .D,.D.C.D .B,.D.B,.G, | %280
 .D,2 .D,2 .D,2 z2 | z8 | z8 | z8 | z8 | z2 (D,2!p! E,) z F, z | G, z A, z B, z ^C z | %287
 D2 (D,2 B,,2 E,2) | .A,,.A,.A,.A, !/!A,4 | .A,,.A,.A,.A, !/!A,4 | .A,,.A,.A,.A, !/!A,4 | %291
 .A,,.A,.A,.A, !/!A,4 | .A,,.A,.A,.A, A,2 z2 | (!///!_B,4 A,2) z2 | (!///!_B,4 A,2) z2 | z8 | z8 | %297
 D,4 z4 | .A,2 z2 .D2 z2 | .^C2 z2 .D2 z2 | .A,,2 z2 z4 | D,4 z4 | .A,2 z2 .B,2 z2 | %303
 .G,2 z2 .A,2 z2 | (!///!=C4 B,2) z2 | G,4 z4 | .A,2 z2 .B,2 z2 | .G,2 z2 .A,2 z2 | %308
 (!///!F,4 !///!E,4 | !///!D,4 !///!G,4) | !///!A,4 !///!A,,4 |!f! !/!F,4 !/!E,4 | !/!D,4 !/!G,4 | %313
 !/!A,4 !/!A,,4 | D,2!p! .D,2 .F,2 .A,2 | .D2 .D,2 z4 | z2 .D,2 .F,2 .A,2 | .D2 .D,2 z4 | %318
 z2 .D,2 .F,2 .A,2 | .D2 .D,2 z4 |1 z8 :|2 z4 z!f! .D,.F,.A, |: .C2 .C2 .C2 .C2 | _E,2 z2 z4 | %324
!p! _E,4 z4 | ._B,,2 z2 ._E,2 z2 | .D,2 z2 ._E,2 z2 | ._B,,2 z2 z4 | _E,4 z4 | ._B,,2 z2 .C,2 z2 | %330
 ._A,,2 z2 ._B,,2 z2 |!f! ._E,,._E,.E,.E, !/!E,4 | ._E,,._E,.E,.E, !/!E,4 | _E,4- (E,=F,)(D,_B,,) | %334
 G,4- (G,_A,)(=F,D,) | _E,2 .E,2 z2 .E,2 | z2 ._E,2 .E,2 .E,2 | z2 .D,2 z2 .D,2 | %338
 z2 .D,2 .D,2 .D,2 | z2 .C,2 z2 .C,2 | z2 .C,2 .C,2 .C,2 | z2 .^F,2 z2 .F,2 | z2 .F,2 .F,2 .F,2 | %343
 z2 .G,2 z2 .G,2 | z2 .G,2 .G,2 .G,2 | (G,_E).E.E (E_B,).B,.B, | (_B,G,).G,.G, (G,_E,)(E,^C,) | %347
 .D,.D.=C.D ._B,.D.B,.G, | .D2 .D,2 .D,2 z2 | z8 | z8 | z8 | z8 | z2 (G,,2!p! A,,) z B,, z | %354
 C, z D, z E, z F, z | G,2 (E,2 G,2 A,2) | !/!.D,8 | !/!.D,8 | !/!.D,8 | !/!.D,8 | !/!.D,4 D,2 z2 | %361
 (_E,4 D,2) z2 | (_E,4 D,2) z2 | z8 | z8 | G,4 z4 | .D,2 z2 .G,2 z2 | .F,2 z2 .G,2 z2 | %368
 .D,2 z2 z4 | G,,4 z4 | .D,2 z2 .E,2 z2 | .C,2 z2 .D,2 z2 | (=F,4 E,2) z2 | C,4 z4 | %374
 .D,2 z2 .E,2 z2 | .C,2 z2 .D,2 z2 | (B,,4 A,,4 | G,,4 C,4) | D,4 D,,4 |!f! .B,,.B,.B,.B, !/!A,4 | %380
 !/!G,4 !/!C,4 | !/!D,8 | G,2!p! .G,,2 .B,,2 .D,2 | .G,2 .G,,2 z4 | z2 .G,,2 .B,,2 .D,2 | %385
 .G,2 .G,,2 z4 | z2 .G,,2 .B,,2 .D,2 | .G,2 .G,,2 z4 | z4 z!f! .G,,.B,,.D, | .=F,2 .F,2 .F,2 .F,2 | %390
 ^G,,2 z2 z4 | z8 | z8 | z8 | z4 z!f! .D,.F,.A, :| .C2 .C2 .C2 .C2 | D,2 z2 z4 |!p! G,4 z4 | %398
 .D,2 z2 .G,2 z2 | .F,2 z2 .G,2 z2 | .D,2 z2 z4 | G,4 z4 | .D,2 z2 .E,2 z2 | .C,2 z2 .D,2 z2 | %404
 G,,2 z2 z .D,.G,.B, | .D2 .D2 .D2 .D2 | B,2 z2 z .D,.G,.B, | .D2 .D2 .D2 .D2 | %408
 B,2 z2 z .D,.G,.B, | .D2 .D2 .^D2 .D2 | (E4 C4) | =D4 D,4 |!f! .G,.D.D.D .C.D.B,.D | %413
 .A,.D.G,.D .F,.D.D,.D | .G,.D.D.D .C.D.B,.D | .A,.D.G,.D .F,.D.D,.D | .G,.D.D.D .C.D.B,.D | %417
 .A,.D.G,.D .F,.D.D,.D | !/!G,4 !/!G,4 | !/!C,4 !/!D,4 | G,,2 z2 z4 | z4 z!f! .G,,.B,,.D, | %422
 .G,2 .G,2 .G,2 .G,2 | G,,2 z2 z .G,,.B,,.D, | .G,2 .G,2 .G,2 .G,2 | G,,2 z2 z .G,,.B,,.D, | %426
 .G,2 .D2 .B,2 .G,2 | .D,2 .G,2 .B,,2 .D,2 | G,,2 z2 G,2 z2 | !//!G,,4 z4 |] %430

